packages/ffe-icons/icons/open/400/sm/wallpaper_slideshow.svg

<svg xmlns="http://www.w3.org/2000/svg" height="20" viewBox="0 -960 960 960" width="20"><path d="M672.21-636q-15.21 0-25.71-10.29t-10.5-25.5q0-15.21 10.29-25.71t25.5-10.5q15.21 0 25.71 10.29t10.5 25.5q0 15.21-10.29 25.71t-25.5 10.5ZM708-384H396q-11.37 0-16.19-10-4.81-10 2.19-19l66-88q5.25-8 14-8t14 8l52 69 76-101q5.25-8 14-8t14 8l90 120q7 9 2.19 19-4.81 10-16.19 10ZM168-96q-29.7 0-50.85-21.15Q96-138.3 96-168v-516q0-15.3 10.29-25.65Q116.58-720 131.79-720t25.71 10.35Q168-699.3 168-684v516h516q15.3 0 25.65 10.29Q720-147.42 720-132.21t-10.35 25.71Q699.3-96 684-96H168Zm72-696q0-29.7 21.15-50.85Q282.3-864 312-864h168q15.3 0 25.65 10.29Q516-843.42 516-828.21t-10.35 25.71Q495.3-792 480-792H312v183q0 15.3-10.29 25.65Q291.42-573 276.21-573t-25.71-10.35Q240-593.7 240-609v-183Zm72 552q-29.7 0-50.85-21.15Q240-282.3 240-312v-153q0-15.3 10.29-25.65Q260.58-501 275.79-501t25.71 10.35Q312-480.3 312-465v153h168q15.3 0 25.65 10.29Q516-291.42 516-276.21t-10.35 25.71Q495.3-240 480-240H312Zm480 0H624q-15.3 0-25.65-10.29Q588-260.58 588-275.79t10.35-25.71Q608.7-312 624-312h168v-153q0-15.3 10.29-25.65Q812.58-501 827.79-501t25.71 10.35Q864-480.3 864-465v153q0 29.7-21.15 50.85Q821.7-240 792-240Zm72-552v183q0 15.3-10.29 25.65Q843.42-573 828.21-573t-25.71-10.35Q792-593.7 792-609v-183H624q-15.3 0-25.65-10.29Q588-812.58 588-827.79t10.35-25.71Q608.7-864 624-864h168q29.7 0 50.85 21.15Q864-821.7 864-792Z"/></svg>

<svg xmlns="http://www.w3.org/2000/svg" height="20" viewBox="0 -960 960 960" width="20"><path d="M672.211-636Q657-636 646.5-646.289q-10.5-10.29-10.5-25.5Q636-687 646.289-697.5q10.29-10.5 25.5-10.5Q687-708 697.5-697.711q10.5 10.29 10.5 25.5Q708-657 697.711-646.5q-10.29 10.5-25.5 10.5ZM708-384H396q-11.375 0-16.188-10Q375-404 382-413l66-88q5.25-8 14-8t14 8l52 69 76-101q5.25-8 14-8t14 8l90 120q7 9 2.188 19-4.813 10-16.188 10ZM168-96q-29.7 0-50.85-21.15Q96-138.3 96-168v-516q0-15.3 10.289-25.65 10.29-10.35 25.5-10.35Q147-720 157.5-709.65 168-699.3 168-684v516h516q15.3 0 25.65 10.289 10.35 10.29 10.35 25.5Q720-117 709.65-106.5 699.3-96 684-96H168Zm72-696q0-29.7 21.15-50.85Q282.3-864 312-864h168q15.3 0 25.65 10.289 10.35 10.29 10.35 25.5Q516-813 505.65-802.5 495.3-792 480-792H312v183q0 15.3-10.289 25.65-10.29 10.35-25.5 10.35Q261-573 250.5-583.35 240-593.7 240-609v-183Zm72 552q-29.7 0-50.85-21.15Q240-282.3 240-312v-153q0-15.3 10.289-25.65 10.29-10.35 25.5-10.35Q291-501 301.5-490.65 312-480.3 312-465v153h168q15.3 0 25.65 10.289 10.35 10.29 10.35 25.5Q516-261 505.65-250.5 495.3-240 480-240H312Zm480 0H624q-15.3 0-25.65-10.289-10.35-10.29-10.35-25.5Q588-291 598.35-301.5 608.7-312 624-312h168v-153q0-15.3 10.289-25.65 10.29-10.35 25.5-10.35Q843-501 853.5-490.65 864-480.3 864-465v153q0 29.7-21.15 50.85Q821.7-240 792-240Zm72-552v183q0 15.3-10.289 25.65-10.29 10.35-25.5 10.35Q813-573 802.5-583.35 792-593.7 792-609v-183H624q-15.3 0-25.65-10.289-10.35-10.29-10.35-25.5Q588-843 598.35-853.5 608.7-864 624-864h168q29.7 0 50.85 21.15Q864-821.7 864-792Z"/></svg>
